resources/haticons/SVG/assistant.svg

<!-- Generated by IcoMoon.io -->
<svg version="1.1" xmlns="http://www.w3.org/2000/svg" width="24" height="24" viewBox="0 0 24 24">
<title>assistant</title>
<path d="M13.875 12.891l4.125-1.875-4.125-1.875-1.875-4.125-1.875 4.125-4.125 1.875 4.125 1.875 1.875 4.125zM18.984 2.016q0.797 0 1.406 0.586t0.609 1.383v14.016q0 0.797-0.609 1.406t-1.406 0.609h-3.984l-3 3-3-3h-3.984q-0.797 0-1.406-0.609t-0.609-1.406v-14.016q0-0.797 0.609-1.383t1.406-0.586h13.969z"></path>
</svg>

<svg xmlns="http://www.w3.org/2000/svg" width="24" height="24"><path d="M13.875 12.891L18 11.016l-4.125-1.875L12 5.016l-1.875 4.125L6 11.016l4.125 1.875L12 17.016zm5.109-10.875q.797 0 1.406.586t.609 1.383v14.016q0 .797-.609 1.406t-1.406.609H15l-3 3-3-3H5.016q-.797 0-1.406-.609t-.609-1.406V3.985q0-.797.609-1.383t1.406-.586h13.969z"/></svg>
